web/themes/custom/surf_main/images/icons/ui-icon-link.svg

<svg fill="none" height="28" viewBox="0 0 28 28" width="28" xmlns="http://www.w3.org/2000/svg"><g stroke="#222" stroke-width="1.5"><path d="m13.5339 6.68865 1.8333-1.83324c1.8224-1.82245 4.7772-1.82245 6.5996 0 1.8225 1.82244 1.8225 4.77721 0 6.59969l-4.164 4.164c-1.9526 1.9527-5.1185 1.9527-7.0711 0l-.3143-.3142"/><path d="m12.8005 20.6213-1.8332 1.8332c-1.82249 1.8225-4.77726 1.8225-6.5997 0-1.82245-1.8224-1.82245-4.7772 0-6.5996l4.16407-4.1641c1.95263-1.95261 5.11843-1.95261 7.07103 0l.3143.3143"/></g></svg>

<svg width="28" height="28" viewBox="0 0 28 28" fill="none" xmlns="http://www.w3.org/2000/svg">
<path d="M13.5339 6.68865L15.3672 4.85541C17.1896 3.03296 20.1444 3.03296 21.9668 4.85541V4.85541C23.7893 6.67785 23.7893 9.63262 21.9668 11.4551L17.8028 15.6191C15.8502 17.5718 12.6843 17.5718 10.7317 15.6191L10.4174 15.3049" stroke="#222222" stroke-width="1.5"/>
<path d="M12.8005 20.6213L10.9673 22.4545C9.14481 24.277 6.19004 24.277 4.3676 22.4545V22.4545C2.54515 20.6321 2.54515 17.6773 4.3676 15.8549L8.53167 11.6908C10.4843 9.73819 13.6501 9.73819 15.6027 11.6908L15.917 12.0051" stroke="#222222" stroke-width="1.5"/>
</svg>
